ix/shop-add_twotone.svg

<svg viewBox="0 0 24 24" fill="none" xmlns="http://www.w3.org/2000/svg" height="1em" width="1em">
  <path opacity="0.4" d="M21.0105 11.2197V15.7097C21.0105 20.1997 19.2205 21.9998 14.7205 21.9998H9.33051C8.75051 21.9998 8.22047 21.9698 7.73047 21.8998" stroke="#292D32" stroke-width="1.5" stroke-linecap="round" stroke-linejoin="round"/>
  <path opacity="0.4" d="M3.03906 15.5198V11.2197" stroke="#292D32" stroke-width="1.5" stroke-linecap="round" stroke-linejoin="round"/>
  <path d="M12.0299 12C13.8599 12 15.2099 10.5101 15.0299 8.68005L14.3599 2H9.68989L9.01991 8.68005C8.83991 10.5101 10.1999 12 12.0299 12Z" stroke="#292D32" stroke-width="1.5" stroke-linecap="round" stroke-linejoin="round"/>
  <path d="M18.3303 12C20.3503 12 21.8303 10.36 21.6303 8.34998L21.3503 5.59998C20.9903 2.99998 19.9903 2 17.3703 2H14.3203L15.0203 9.01001C15.2003 10.66 16.6803 12 18.3303 12Z" stroke="#292D32" stroke-width="1.5" stroke-linecap="round" stroke-linejoin="round"/>
  <path d="M5.66979 12C7.31979 12 8.80978 10.66 8.96978 9.01001L9.18981 6.80005L9.66979 2H6.61981C3.99981 2 2.99983 2.99998 2.63983 5.59998L2.3598 8.34998C2.1598 10.36 3.64979 12 5.66979 12Z" stroke="#292D32" stroke-width="1.5" stroke-linecap="round" stroke-linejoin="round"/>
  <path d="M9 19C9 19.75 8.78998 20.4601 8.41998 21.0601C8.22998 21.3801 7.99998 21.67 7.72998 21.9C7.69998 21.94 7.67 21.97 7.63 22C6.93 22.63 6.01 23 5 23C3.78 23 2.68997 22.45 1.96997 21.59C1.94997 21.56 1.92002 21.54 1.90002 21.51C1.78002 21.37 1.67002 21.2201 1.58002 21.0601C1.21002 20.4601 1 19.75 1 19C1 17.74 1.58 16.61 2.5 15.88C2.67 15.74 2.84998 15.62 3.03998 15.52C3.61998 15.19 4.29 15 5 15C6 15 6.89998 15.36 7.59998 15.97C7.71998 16.06 7.82999 16.17 7.92999 16.28C8.58999 17 9 17.95 9 19Z" stroke="#292D32" stroke-width="1.5" stroke-miterlimit="10" stroke-linecap="round" stroke-linejoin="round"/>
  <g opacity="0.4">
    <path d="M6.48975 18.98H3.50977" stroke="#292D32" stroke-width="1.5" stroke-miterlimit="10" stroke-linecap="round" stroke-linejoin="round"/>
    <path d="M5 17.52V20.51" stroke="#292D32" stroke-width="1.5" stroke-miterlimit="10" stroke-linecap="round" stroke-linejoin="round"/>
  </g>
</svg>

<svg viewBox="0 0 24 24" fill="none" xmlns="http://www.w3.org/2000/svg" height="1em" width="1em">
  <path opacity=".4" d="M21.01 11.22v4.49c0 4.49-1.79 6.29-6.29 6.29H9.33c-.58 0-1.11-.03-1.6-.1m-4.69-6.38v-4.3" stroke="#292D32" stroke-width="1.5" stroke-linecap="round" stroke-linejoin="round"/>
  <path d="M12.03 12c1.83 0 3.18-1.49 3-3.32L14.36 2H9.69l-.67 6.68C8.84 10.51 10.2 12 12.03 12Z" stroke="#292D32" stroke-width="1.5" stroke-linecap="round" stroke-linejoin="round"/>
  <path d="M18.33 12c2.02 0 3.5-1.64 3.3-3.65l-.28-2.75C20.99 3 19.99 2 17.37 2h-3.05l.7 7.01c.18 1.65 1.66 2.99 3.31 2.99ZM5.67 12c1.65 0 3.14-1.34 3.3-2.99l.22-2.21.48-4.8H6.62C4 2 3 3 2.64 5.6l-.28 2.75C2.16 10.36 3.65 12 5.67 12Z" stroke="#292D32" stroke-width="1.5" stroke-linecap="round" stroke-linejoin="round"/>
  <path d="M9 19c0 .75-.21 1.46-.58 2.06-.19.32-.42.61-.69.84-.03.04-.06.07-.1.1-.7.63-1.62 1-2.63 1-1.22 0-2.31-.55-3.03-1.41-.02-.03-.05-.05-.07-.08-.12-.14-.23-.29-.32-.45A3.92 3.92 0 0 1 1 19c0-1.26.58-2.39 1.5-3.12.17-.14.35-.26.54-.36C3.62 15.19 4.29 15 5 15c1 0 1.9.36 2.6.97.12.09.23.2.33.31C8.59 17 9 17.95 9 19Z" stroke="#292D32" stroke-width="1.5" stroke-miterlimit="10" stroke-linecap="round" stroke-linejoin="round"/>
  <path d="M6.49 18.98H3.51M5 17.52v2.99" opacity=".4" stroke="#292D32" stroke-width="1.5" stroke-miterlimit="10" stroke-linecap="round" stroke-linejoin="round"/>
</svg>
